icons/src/svg/upload.svg

<svg width="32" height="32" viewBox="0 0 32 32" fill="none" xmlns="http://www.w3.org/2000/svg">
<path d="M26.8084 4.00977C27.3607 4.00977 27.8084 3.56205 27.8084 3.00977C27.8084 2.45748 27.3607 2.00977 26.8084 2.00977L5.1876 2.00977C4.63532 2.00977 4.1876 2.45748 4.1876 3.00977C4.1876 3.56205 4.63532 4.00977 5.1876 4.00977L26.8084 4.00977Z" fill="#0D0F13"/>
<path d="M27.72 18.0411C27.3295 18.4316 26.6964 18.4316 26.3058 18.0411L16.9958 8.73112L16.9958 29.0312C16.9958 29.5835 16.5481 30.0312 15.9958 30.0312C15.4436 30.0312 14.9958 29.5835 14.9958 29.0312L14.9958 8.73088L5.68562 18.0411C5.2951 18.4316 4.66193 18.4316 4.27141 18.0411C3.88088 17.6506 3.88088 17.0174 4.27141 16.6269L14.1573 6.74105C15.1726 5.72569 16.8188 5.72569 17.8342 6.74105L27.72 16.6269C28.1106 17.0174 28.1106 17.6506 27.72 18.0411Z" fill="#0D0F13"/>
</svg>

<svg fill="none" xmlns="http://www.w3.org/2000/svg" viewBox="0 0 32 32">
  <path fill-rule="evenodd" clip-rule="evenodd" d="M26.809 4.01a1 1 0 0 0 0-2H5.188a1 1 0 1 0 0 2h21.62Zm.911 14.03a1 1 0 0 1-1.414 0l-9.31-9.31v20.303a1 1 0 1 1-2 0V8.73l-9.31 9.31a1 1 0 0 1-1.414-1.415l9.886-9.885a2.6 2.6 0 0 1 3.677 0l9.885 9.886a1 1 0 0 1 0 1.414Z" fill="currentColor"/>
</svg>
